svg/numeric_5_box_multiple_outline.svg

<svg xmlns="http://www.w3.org/2000/svg" viewBox="0 0 24 24"><path d="M17 13v-2a2 2 0 0 0-2-2h-2V7h4V5h-6v6h4v2h-4v2h4a2 2 0 0 0 2-2M3 5H1v16a2 2 0 0 0 2 2h16v-2H3m18-4H7V3h14m0-2H7a2 2 0 0 0-2 2v14a2 2 0 0 0 2 2h14a2 2 0 0 0 2-2V3a2 2 0 0 0-2-2"/></svg>

<?xml version="1.0" encoding="UTF-8"?><!DOCTYPE svg PUBLIC "-//W3C//DTD SVG 1.1//EN" "http://www.w3.org/Graphics/SVG/1.1/DTD/svg11.dtd"><svg xmlns="http://www.w3.org/2000/svg" xmlns:xlink="http://www.w3.org/1999/xlink" version="1.1" id="mdi-numeric-5-box-multiple-outline" width="24" height="24" viewBox="0 0 24 24"><path d="M17,13V11C17,9.89 16.1,9 15,9H13V7H17V5H11V11H15V13H11V15H15A2,2 0 0,0 17,13M3,5H1V21A2,2 0 0,0 3,23H19V21H3M21,17H7V3H21M21,1H7A2,2 0 0,0 5,3V17A2,2 0 0,0 7,19H21A2,2 0 0,0 23,17V3A2,2 0 0,0 21,1Z" /></svg>
